X: 1
T:Old Haile Hornpipe
M:3/2
L:1/8
S:Marsden
Z:ps
K:G
A3Bc2BA B2AG|A2D4G2F2ED|B3cd2cBc2BA|B2G4A2B2AG||
FGAB cdcA GABG|A2D4G2F2D2|GABc dedB ABcA|B2G4A2B2AG||
c2e4dc BcdB|A2D4G2F2ED|G2g2f3e fgaf|g2G4A2B2AG||
cB AG FGAF GABG|A2D4G2F3A|dcBA GABG cA FA|B2G4A2B2AG||
c2e2c2e2BcdB|A2f2A2f2ABcA|G2g2G2fgaf|g2G4A2B2AG||
cBAG FGAF GABG |AGFE DEFG AB cA|dcBA GABG cAFA|B2G4A2B2AG||
c2e2c2e2B2d2|A2f2A2f2AB cA|G2g2G2fgaf|g2G4A2B2AB||
cAFA cAFA dB GB|A2D4G2F3A|dB GB dB GB cAFA|B2G4A2B2AG||
c2e2c2e2B2d2|A2f2A2f2AB cA|G2g2G2g2fgaf|g2G4A2B2AG||
